src/main/resources/icons/NodeJSIcons/com/jetbrains/nodejs/icons/OpenV8HeapSnapshot.svg

<svg xmlns="http://www.w3.org/2000/svg" width="16" height="16" viewBox="0 0 16 16">
  <g fill="none" fill-rule="evenodd">
    <g fill="#6E6E6E" transform="translate(1 3)">
      <path d="M9,4.57975099 C8.08916497,5.2000513 7.5,6.18764388 7.5,7.3 C7.5,7.91928814 7.68261429,8.49990528 8.00168323,9 L3,9 L3,0 L9,0 L9,4.57975099 Z"/>
      <rect width="3.5" height="1" y="2"/>
      <rect width="3.5" height="1" y="4"/>
      <rect width="3.5" height="1" y="6"/>
      <rect width="3.5" height="1" x="8.5" y="2"/>
    </g>
    <path fill="#3F89EC" d="M12.3499998,16 C10.6277776,16 9.34999981,15.1111111 9.34999981,13.7555556 L9.34999981,13.7333333 C9.34999981,12.7888889 9.78333314,12.2333333 10.6055554,11.8555556 C10.0055554,11.4888889 9.61666648,10.9888889 9.61666648,10.1555556 L9.61666648,10.1333333 C9.61666648,8.94444444 10.7055554,8 12.3499998,8 C13.9944443,8 15.0833331,8.93333333 15.0833331,10.1333333 L15.0833331,10.1555556 C15.0833331,10.9888889 14.6944443,11.4888889 14.0944443,11.8555556 C14.8833331,12.2666667 15.3499998,12.7666667 15.3499998,13.6888889 L15.3499998,13.7111111 C15.3499998,15.1555556 14.072222,16 12.3499998,16 Z M12.3499998,11.2888889 C13.0277776,11.2888889 13.4611109,10.8888889 13.4611109,10.3444444 L13.4611109,10.3222222 C13.4611109,9.84444444 13.0499998,9.41111111 12.3499998,9.41111111 C11.6499998,9.41111111 11.2388887,9.83333333 11.2388887,10.3111111 L11.2388887,10.3333333 C11.2388887,10.8777778 11.672222,11.2888889 12.3499998,11.2888889 Z M12.3499998,14.5888889 C13.1944443,14.5888889 13.6944443,14.1666667 13.6944443,13.6222222 L13.6944443,13.6 C13.6944443,13 13.1277776,12.6444444 12.3499998,12.6444444 C11.572222,12.6444444 11.0055554,13 11.0055554,13.6 L11.0055554,13.6222222 C11.0055554,14.1555556 11.5055554,14.5888889 12.3499998,14.5888889 Z"/>
  </g>
</svg>

<svg xmlns="http://www.w3.org/2000/svg" width="16" height="16" viewBox="0 0 16 16"><rect id="frame" width="16" height="16" fill="none"/><g fill="none" fill-rule="evenodd"><g fill="#6E6E6E"><path d="M10 7.58c-.91.62-1.5 1.608-1.5 2.72 0 .62.183 1.2.502 1.7H4V3h6v4.58z"/><path d="M1 5h3.5v1H1z"/><path d="M1 7h3.5v1H1z"/><path d="M1 9h3.5v1H1z"/><path d="M9.5 5H13v1H9.5z"/></g><path fill="#3F89EC" d="M12.35 16c-1.722 0-3-.889-3-2.244v-.023c0-.944.433-1.5 1.256-1.877-.6-.367-.99-.867-.99-1.7v-.023C9.617 8.944 10.707 8 12.35 8s2.733.933 2.733 2.133v.023c0 .833-.389 1.333-.989 1.7.79.41 1.256.91 1.256 1.833v.022c0 1.445-1.278 2.289-3 2.289zm0-4.711c.678 0 1.111-.4 1.111-.945v-.022c0-.478-.411-.91-1.111-.91s-1.111.421-1.111.9v.021c0 .545.433.956 1.111.956zm0 3.3c.844 0 1.344-.422 1.344-.967V13.6c0-.6-.566-.956-1.344-.956-.778 0-1.344.356-1.344.956v.022c0 .534.5.967 1.344.967z"/></g></svg>
